logos/micro-python.svg

<?xml version="1.0" encoding="UTF-8"?>
<svg width="256px" height="256px" viewBox="0 0 256 256" version="1.1" xmlns="http://www.w3.org/2000/svg" preserveAspectRatio="xMidYMid">
    <title>MicroPython</title>
    <g>
        <path d="M0,0 L122.760234,0 L122.760234,199.859649 L133.239766,199.859649 L133.239766,0 L256,0 L256,256 L199.859649,256 L199.859649,56.1403509 L189.380117,56.1403509 L189.380117,256 L66.619883,256 L66.619883,56.1403509 L56.1403509,56.5146199 L56.1403509,256 L0,256 L0,0 Z M237.28655,208.093567 L222.315789,208.093567 L222.315789,233.54386 L237.28655,233.54386 L237.28655,208.093567 Z" fill="#000000"></path>
    </g>
</svg>

<svg preserveAspectRatio="xMidYMid" viewBox="0 0 256 256" xmlns="http://www.w3.org/2000/svg">
  <path d="M0 0h122.76v199.86h10.48V0H256v256h-56.14V56.14h-10.48V256H66.62V56.14l-10.48.375V256H0V0Zm237.287 208.094h-14.971v25.45h14.97v-25.45Z"/>
</svg>
